%
(Header)
(Generated by gcodetools from Inkscape.)
(Using default header. To add your own header create file "header" in the output dir.)
M3
(Header end.)
G21 (All units in mm)

(Start cutting path id: text14)
(Change tool to Default tool)

G00 Z5.000000
G00 X52.979724 Y9.525660

G01 Z-0.125000 F100.0(Penetrate)
G01 X52.875524 Y8.983660 Z-0.125000 F400.000000
G01 X52.583624 Y8.545660 Z-0.125000
G01 X52.145824 Y8.264660 Z-0.125000
G01 X51.614224 Y8.160660 Z-0.125000
G01 X45.505924 Y8.160660 Z-0.125000
G01 X43.754824 Y8.347660 Z-0.125000
G01 X42.034924 Y8.921660 Z-0.125000
G01 X40.481724 Y9.921660 Z-0.125000
G01 X39.199624 Y11.349660 Z-0.125000
G01 X38.714924 Y12.241660 Z-0.125000
G01 X38.344924 Y13.246660 Z-0.125000
G01 X38.110324 Y14.380660 Z-0.125000
G01 X38.032224 Y15.633660 Z-0.125000
G01 X38.032224 Y23.107660 Z-0.125000
G01 X40.742324 Y23.107660 Z-0.125000
G01 X40.742324 Y15.633660 Z-0.125000
G01 X40.820524 Y14.575660 Z-0.125000
G01 X41.055024 Y13.695660 Z-0.125000
G01 X41.868124 Y12.371660 Z-0.125000
G01 X42.941724 Y11.537660 Z-0.125000
G01 X44.046624 Y11.089660 Z-0.125000
G01 X44.974324 Y10.901660 Z-0.125000
G01 X45.505924 Y10.870660 Z-0.125000
G01 X50.269624 Y10.870660 Z-0.125000
G01 X50.269624 Y23.107660 Z-0.125000
G01 X52.979724 Y23.107660 Z-0.125000
G01 X52.979724 Y9.525660 Z-0.125000
G00 Z5.000000

(End cutting path id: text14)


(Start cutting path id: text14)
(Change tool to Default tool)

G00 Z5.000000
G00 X66.650024 Y11.964660

G01 Z-0.125000 F100.0(Penetrate)
G01 X66.472824 Y10.703660 Z-0.125000 F400.000000
G01 X66.003724 Y9.723660 Z-0.125000
G01 X65.326224 Y9.004660 Z-0.125000
G01 X64.513224 Y8.525660 Z-0.125000
G01 X63.658424 Y8.243660 Z-0.125000
G01 X62.845424 Y8.160660 Z-0.125000
G01 X55.507124 Y8.160660 Z-0.125000
G01 X55.507124 Y10.870660 Z-0.125000
G01 X62.824524 Y10.870660 Z-0.125000
G01 X63.309224 Y10.940660 Z-0.125000
G01 X63.658424 Y11.151660 Z-0.125000
G01 X63.869524 Y11.495660 Z-0.125000
G01 X63.939924 Y11.964660 Z-0.125000
G01 X63.851924 Y12.439660 Z-0.125000
G01 X63.640224 Y12.777660 Z-0.125000
G01 X63.304724 Y12.981660 Z-0.125000
G01 X62.845424 Y13.048660 Z-0.125000
G01 X58.644624 Y13.048660 Z-0.125000
G01 X57.815924 Y13.127660 Z-0.125000
G01 X57.122824 Y13.361660 Z-0.125000
G01 X56.101224 Y14.143660 Z-0.125000
G01 X55.538424 Y15.154660 Z-0.125000
G01 X55.371624 Y16.165660 Z-0.125000
G01 X55.452424 Y16.999660 Z-0.125000
G01 X55.694724 Y17.687660 Z-0.125000
G01 X56.507824 Y18.698660 Z-0.125000
G01 X57.571024 Y19.250660 Z-0.125000
G01 X58.644624 Y19.428660 Z-0.125000
G01 X65.305424 Y19.428660 Z-0.125000
G01 X65.305424 Y16.718660 Z-0.125000
G01 X58.665524 Y16.718660 Z-0.125000
G01 X58.331924 Y16.665660 Z-0.125000
G01 X58.154724 Y16.540660 Z-0.125000
G01 X58.092224 Y16.374660 Z-0.125000
G01 X58.081724 Y16.207660 Z-0.125000
G01 X58.144324 Y15.946660 Z-0.125000
G01 X58.269424 Y15.811660 Z-0.125000
G01 X58.446624 Y15.759660 Z-0.125000
G01 X58.644624 Y15.759660 Z-0.125000
G01 X62.845424 Y15.759660 Z-0.125000
G01 X63.809624 Y15.665660 Z-0.125000
G01 X64.617424 Y15.383660 Z-0.125000
G01 X65.276724 Y14.959660 Z-0.125000
G01 X65.795324 Y14.435660 Z-0.125000
G01 X66.441524 Y13.205660 Z-0.125000
G01 X66.650024 Y11.964660 Z-0.125000
G01 X66.650024 Y11.964660 Z-0.125000
G00 Z5.000000

(End cutting path id: text14)


(Start cutting path id: text14)
(Change tool to Default tool)

G00 Z5.000000
G00 X80.653824 Y15.696660

G01 Z-0.125000 F100.0(Penetrate)
G01 X80.455824 Y14.476660 Z-0.125000 F400.000000
G01 X79.809524 Y13.267660 Z-0.125000
G01 X79.301424 Y12.759660 Z-0.125000
G01 X78.652524 Y12.340660 Z-0.125000
G01 X77.865524 Y12.058660 Z-0.125000
G01 X76.922224 Y11.964660 Z-0.125000
G01 X72.033524 Y11.964660 Z-0.125000
G01 X72.033524 Y14.539660 Z-0.125000
G01 X76.922224 Y14.539660 Z-0.125000
G01 X77.412124 Y14.622660 Z-0.125000
G01 X77.776924 Y14.873660 Z-0.125000
G01 X78.003624 Y15.256660 Z-0.125000
G01 X78.079224 Y15.717660 Z-0.125000
G01 X77.993224 Y16.191660 Z-0.125000
G01 X77.735224 Y16.551660 Z-0.125000
G01 X77.365224 Y16.777660 Z-0.125000
G01 X76.922224 Y16.853660 Z-0.125000
G01 X72.033524 Y16.853660 Z-0.125000
G01 X71.543524 Y16.767660 Z-0.125000
G01 X71.178724 Y16.509660 Z-0.125000
G01 X70.952024 Y16.134660 Z-0.125000
G01 X70.876424 Y15.675660 Z-0.125000
G01 X70.876424 Y11.891660 Z-0.125000
G01 X70.959824 Y11.409660 Z-0.125000
G01 X71.210024 Y11.047660 Z-0.125000
G01 X71.593124 Y10.820660 Z-0.125000
G01 X72.054324 Y10.745660 Z-0.125000
G01 X76.922224 Y10.745660 Z-0.125000
G01 X76.922224 Y8.160660 Z-0.125000
G01 X72.033524 Y8.160660 Z-0.125000
G01 X70.813924 Y8.358660 Z-0.125000
G01 X69.604724 Y8.994660 Z-0.125000
G01 X69.096624 Y9.507660 Z-0.125000
G01 X68.677024 Y10.151660 Z-0.125000
G01 X68.395624 Y10.945660 Z-0.125000
G01 X68.301824 Y11.891660 Z-0.125000
G01 X68.301824 Y15.696660 Z-0.125000
G01 X68.499824 Y16.905660 Z-0.125000
G01 X69.135724 Y18.114660 Z-0.125000
G01 X69.649024 Y18.630660 Z-0.125000
G01 X70.292724 Y19.052660 Z-0.125000
G01 X71.087524 Y19.334660 Z-0.125000
G01 X72.033524 Y19.428660 Z-0.125000
G01 X76.922224 Y19.428660 Z-0.125000
G01 X78.131324 Y19.230660 Z-0.125000
G01 X79.340524 Y18.583660 Z-0.125000
G01 X79.856424 Y18.075660 Z-0.125000
G01 X80.278624 Y17.426660 Z-0.125000
G01 X80.560024 Y16.639660 Z-0.125000
G01 X80.653824 Y15.696660 Z-0.125000
G01 X80.653824 Y15.696660 Z-0.125000
G00 Z5.000000

(End cutting path id: text14)


(Start cutting path id: text14)
(Change tool to Default tool)

G00 Z5.000000
G00 X92.322824 Y16.718660

G01 Z-0.125000 F100.0(Penetrate)
G01 X86.224924 Y16.718660 Z-0.125000 F400.000000
G01 X85.740224 Y16.647660 Z-0.125000
G01 X85.391024 Y16.436660 Z-0.125000
G01 X85.180024 Y16.100660 Z-0.125000
G01 X85.109624 Y15.633660 Z-0.125000
G01 X85.109624 Y8.160660 Z-0.125000
G01 X82.399424 Y8.160660 Z-0.125000
G01 X82.399424 Y15.633660 Z-0.125000
G01 X82.576624 Y16.884660 Z-0.125000
G01 X83.045724 Y17.854660 Z-0.125000
G01 X83.733724 Y18.573660 Z-0.125000
G01 X84.536324 Y19.063660 Z-0.125000
G01 X85.391024 Y19.334660 Z-0.125000
G01 X86.204124 Y19.428660 Z-0.125000
G01 X92.322824 Y19.428660 Z-0.125000
G01 X92.322824 Y16.718660 Z-0.125000
G00 Z5.000000

(End cutting path id: text14)


(Start cutting path id: text14)
(Change tool to Default tool)

G00 Z5.000000
G00 X115.900120 Y9.525660

G01 Z-0.125000 F100.0(Penetrate)
G01 X115.796120 Y8.983660 Z-0.125000 F400.000000
G01 X115.504120 Y8.545660 Z-0.125000
G01 X115.077120 Y8.264660 Z-0.125000
G01 X114.535120 Y8.160660 Z-0.125000
G01 X104.757120 Y8.160660 Z-0.125000
G01 X103.944120 Y8.243660 Z-0.125000
G01 X103.090120 Y8.525660 Z-0.125000
G01 X102.287120 Y9.004660 Z-0.125000
G01 X101.599120 Y9.723660 Z-0.125000
G01 X101.130120 Y10.703660 Z-0.125000
G01 X100.953120 Y11.964660 Z-0.125000
G01 X100.953120 Y19.303660 Z-0.125000
G01 X101.036120 Y20.105660 Z-0.125000
G01 X101.318120 Y20.960660 Z-0.125000
G01 X101.807120 Y21.773660 Z-0.125000
G01 X102.527120 Y22.451660 Z-0.125000
G01 X103.507120 Y22.930660 Z-0.125000
G01 X104.757120 Y23.107660 Z-0.125000
G01 X115.775120 Y23.107660 Z-0.125000
G01 X115.775120 Y20.397660 Z-0.125000
G01 X104.757120 Y20.397660 Z-0.125000
G01 X104.288120 Y20.327660 Z-0.125000
G01 X103.944120 Y20.116660 Z-0.125000
G01 X103.733120 Y19.766660 Z-0.125000
G01 X103.663120 Y19.282660 Z-0.125000
G01 X103.663120 Y11.964660 Z-0.125000
G01 X103.733120 Y11.500660 Z-0.125000
G01 X103.944120 Y11.151660 Z-0.125000
G01 X104.294120 Y10.940660 Z-0.125000
G01 X104.757120 Y10.870660 Z-0.125000
G01 X113.190120 Y10.870660 Z-0.125000
G01 X113.190120 Y14.268660 Z-0.125000
G01 X105.977120 Y14.268660 Z-0.125000
G01 X105.977120 Y16.999660 Z-0.125000
G01 X114.535120 Y16.999660 Z-0.125000
G01 X115.077120 Y16.884660 Z-0.125000
G01 X115.504120 Y16.592660 Z-0.125000
G01 X115.796120 Y16.155660 Z-0.125000
G01 X115.900120 Y15.633660 Z-0.125000
G01 X115.900120 Y9.525660 Z-0.125000
G00 Z5.000000

(End cutting path id: text14)


(Start cutting path id: text14)
(Change tool to Default tool)

G00 Z5.000000
G00 X128.268120 Y16.718660

G01 Z-0.125000 F100.0(Penetrate)
G01 X122.170120 Y16.718660 Z-0.125000 F400.000000
G01 X121.685120 Y16.647660 Z-0.125000
G01 X121.336120 Y16.436660 Z-0.125000
G01 X121.125120 Y16.100660 Z-0.125000
G01 X121.054120 Y15.633660 Z-0.125000
G01 X121.054120 Y8.160660 Z-0.125000
G01 X118.344120 Y8.160660 Z-0.125000
G01 X118.344120 Y15.633660 Z-0.125000
G01 X118.521120 Y16.884660 Z-0.125000
G01 X118.991120 Y17.854660 Z-0.125000
G01 X119.679120 Y18.573660 Z-0.125000
G01 X120.481120 Y19.063660 Z-0.125000
G01 X121.336120 Y19.334660 Z-0.125000
G01 X122.149120 Y19.428660 Z-0.125000
G01 X128.268120 Y19.428660 Z-0.125000
G01 X128.268120 Y16.718660 Z-0.125000
G00 Z5.000000

(End cutting path id: text14)


(Start cutting path id: text14)
(Change tool to Default tool)

G00 Z5.000000
G00 X139.540120 Y15.613660

G01 Z-0.125000 F100.0(Penetrate)
G01 X139.470120 Y16.103660 Z-0.125000 F400.000000
G01 X139.259120 Y16.447660 Z-0.125000
G01 X138.915120 Y16.650660 Z-0.125000
G01 X138.446120 Y16.718660 Z-0.125000
G01 X133.578120 Y16.718660 Z-0.125000
G01 X133.101120 Y16.647660 Z-0.125000
G01 X132.755120 Y16.436660 Z-0.125000
G01 X132.544120 Y16.100660 Z-0.125000
G01 X132.473120 Y15.633660 Z-0.125000
G01 X132.473120 Y11.964660 Z-0.125000
G01 X132.544120 Y11.495660 Z-0.125000
G01 X132.755120 Y11.151660 Z-0.125000
G01 X133.101120 Y10.940660 Z-0.125000
G01 X133.578120 Y10.870660 Z-0.125000
G01 X138.446120 Y10.870660 Z-0.125000
G01 X138.928120 Y10.940660 Z-0.125000
G01 X139.269120 Y11.151660 Z-0.125000
G01 X139.473120 Y11.495660 Z-0.125000
G01 X139.540120 Y11.964660 Z-0.125000
G01 X139.540120 Y15.613660 Z-0.125000
G00 Z5.000000

(End cutting path id: text14)


(Start cutting path id: text14)
(Change tool to Default tool)

G00 Z5.000000
G00 X142.251120 Y11.964660

G01 Z-0.125000 F100.0(Penetrate)
G01 X142.073120 Y10.703660 Z-0.125000 F400.000000
G01 X141.604120 Y9.723660 Z-0.125000
G01 X140.927120 Y9.004660 Z-0.125000
G01 X140.114120 Y8.525660 Z-0.125000
G01 X139.259120 Y8.243660 Z-0.125000
G01 X138.446120 Y8.160660 Z-0.125000
G01 X133.557120 Y8.160660 Z-0.125000
G01 X132.327120 Y8.358660 Z-0.125000
G01 X131.087120 Y9.004660 Z-0.125000
G01 X130.568120 Y9.528660 Z-0.125000
G01 X130.138120 Y10.182660 Z-0.125000
G01 X129.857120 Y10.992660 Z-0.125000
G01 X129.763120 Y11.964660 Z-0.125000
G01 X129.763120 Y15.633660 Z-0.125000
G01 X129.857120 Y16.595660 Z-0.125000
G01 X130.138120 Y17.395660 Z-0.125000
G01 X130.568120 Y18.054660 Z-0.125000
G01 X131.087120 Y18.573660 Z-0.125000
G01 X132.327120 Y19.230660 Z-0.125000
G01 X133.557120 Y19.428660 Z-0.125000
G01 X138.446120 Y19.428660 Z-0.125000
G01 X139.410120 Y19.334660 Z-0.125000
G01 X140.218120 Y19.052660 Z-0.125000
G01 X140.877120 Y18.628660 Z-0.125000
G01 X141.396120 Y18.104660 Z-0.125000
G01 X142.042120 Y16.874660 Z-0.125000
G01 X142.251120 Y15.633660 Z-0.125000
G01 X142.251120 Y11.964660 Z-0.125000
G00 Z5.000000

(End cutting path id: text14)


(Start cutting path id: text14)
(Change tool to Default tool)

G00 Z5.000000
G00 X156.859120 Y9.525660

G01 Z-0.125000 F100.0(Penetrate)
G01 X156.755120 Y8.983660 Z-0.125000 F400.000000
G01 X156.463120 Y8.545660 Z-0.125000
G01 X156.036120 Y8.264660 Z-0.125000
G01 X155.514120 Y8.160660 Z-0.125000
G01 X149.385120 Y8.160660 Z-0.125000
G01 X148.312120 Y8.274660 Z-0.125000
G01 X147.196120 Y8.639660 Z-0.125000
G01 X146.123120 Y9.285660 Z-0.125000
G01 X145.226120 Y10.234660 Z-0.125000
G01 X144.601120 Y11.527660 Z-0.125000
G01 X144.371120 Y13.173660 Z-0.125000
G01 X144.371120 Y19.428660 Z-0.125000
G01 X147.082120 Y19.428660 Z-0.125000
G01 X147.082120 Y13.173660 Z-0.125000
G01 X147.259120 Y12.214660 Z-0.125000
G01 X147.759120 Y11.495660 Z-0.125000
G01 X148.489120 Y11.026660 Z-0.125000
G01 X149.406120 Y10.870660 Z-0.125000
G01 X154.149120 Y10.870660 Z-0.125000
G01 X154.149120 Y19.428660 Z-0.125000
G01 X156.859120 Y19.428660 Z-0.125000
G01 X156.859120 Y9.525660 Z-0.125000
G00 Z5.000000

(End cutting path id: text14)


(Start cutting path id: text14)
(Change tool to Default tool)

G00 Z5.000000
G00 X171.811120 Y11.964660

G01 Z-0.125000 F100.0(Penetrate)
G01 X171.634120 Y10.703660 Z-0.125000 F400.000000
G01 X171.165120 Y9.723660 Z-0.125000
G01 X170.488120 Y9.004660 Z-0.125000
G01 X169.675120 Y8.525660 Z-0.125000
G01 X168.830120 Y8.243660 Z-0.125000
G01 X168.017120 Y8.160660 Z-0.125000
G01 X163.129120 Y8.160660 Z-0.125000
G01 X163.129120 Y10.870660 Z-0.125000
G01 X168.017120 Y10.870660 Z-0.125000
G01 X168.491120 Y10.940660 Z-0.125000
G01 X168.830120 Y11.151660 Z-0.125000
G01 X169.034120 Y11.495660 Z-0.125000
G01 X169.101120 Y11.964660 Z-0.125000
G01 X169.101120 Y15.613660 Z-0.125000
G01 X169.031120 Y16.103660 Z-0.125000
G01 X168.820120 Y16.446660 Z-0.125000
G01 X168.484120 Y16.650660 Z-0.125000
G01 X168.017120 Y16.718660 Z-0.125000
G01 X163.149120 Y16.718660 Z-0.125000
G01 X162.665120 Y16.647660 Z-0.125000
G01 X162.315120 Y16.436660 Z-0.125000
G01 X162.104120 Y16.100660 Z-0.125000
G01 X162.034120 Y15.633660 Z-0.125000
G01 X162.034120 Y4.636660 Z-0.125000
G01 X159.324120 Y4.636660 Z-0.125000
G01 X159.324120 Y15.633660 Z-0.125000
G01 X159.501120 Y16.884660 Z-0.125000
G01 X159.970120 Y17.854660 Z-0.125000
G01 X160.658120 Y18.573660 Z-0.125000
G01 X161.461120 Y19.063660 Z-0.125000
G01 X162.315120 Y19.334660 Z-0.125000
G01 X163.129120 Y19.428660 Z-0.125000
G01 X168.017120 Y19.428660 Z-0.125000
G01 X169.268120 Y19.250660 Z-0.125000
G01 X170.237120 Y18.781660 Z-0.125000
G01 X170.957120 Y18.104660 Z-0.125000
G01 X171.447120 Y17.291660 Z-0.125000
G01 X171.718120 Y16.446660 Z-0.125000
G01 X171.811120 Y15.633660 Z-0.125000
G01 X171.811120 Y11.964660 Z-0.125000
G00 Z5.000000

(End cutting path id: text14)


(Start cutting path id: text14)
(Change tool to Default tool)

G00 Z5.000000
G00 X159.914120 Y55.401660

G01 Z-0.125000 F100.0(Penetrate)
G01 X157.854120 Y55.737660 Z-0.125000 F400.000000
G01 X156.457120 Y56.177660 Z-0.125000
G01 X155.386120 Y56.736660 Z-0.125000
G01 X154.307120 Y57.779660 Z-0.125000
G01 X153.997120 Y58.386660 Z-0.125000
G01 X153.844120 Y59.044660 Z-0.125000
G01 X153.830120 Y62.743660 Z-0.125000
G01 X153.866120 Y66.419660 Z-0.125000
G01 X154.038120 Y67.069660 Z-0.125000
G01 X154.467120 Y67.881660 Z-0.125000
G01 X155.078120 Y68.548660 Z-0.125000
G01 X155.829120 Y69.036660 Z-0.125000
G01 X156.678120 Y69.307660 Z-0.125000
G01 X156.875120 Y69.345660 Z-0.125000
G01 X160.726120 Y69.366660 Z-0.125000
G01 X164.536120 Y69.377660 Z-0.125000
G01 X164.729120 Y69.414660 Z-0.125000
G01 X165.982120 Y69.844660 Z-0.125000
G01 X167.040120 Y70.638660 Z-0.125000
G01 X167.940120 Y71.907660 Z-0.125000
G01 X168.328120 Y73.384660 Z-0.125000
G01 X168.346120 Y75.172660 Z-0.125000
G01 X168.346120 Y76.734660 Z-0.125000
G01 X169.681120 Y76.734660 Z-0.125000
G01 X171.209120 Y76.717660 Z-0.125000
G01 X172.240120 Y76.452660 Z-0.125000
G01 X173.078120 Y75.843660 Z-0.125000
G01 X173.549120 Y75.237660 Z-0.125000
G01 X173.942120 Y74.457660 Z-0.125000
G01 X174.566120 Y72.200660 Z-0.125000
G01 X174.794120 Y70.658660 Z-0.125000
G01 X174.845120 Y69.228660 Z-0.125000
G01 X174.720120 Y67.883660 Z-0.125000
G01 X174.416120 Y66.595660 Z-0.125000
G01 X173.839120 Y65.022660 Z-0.125000
G01 X173.205120 Y63.930660 Z-0.125000
G01 X172.459120 Y63.246660 Z-0.125000
G01 X171.544120 Y62.899660 Z-0.125000
G01 X171.352120 Y62.861660 Z-0.125000
G01 X166.005120 Y62.856660 Z-0.125000
G01 X160.659120 Y62.851660 Z-0.125000
G01 X160.659120 Y62.415660 Z-0.125000
G01 X160.659120 Y61.980660 Z-0.125000
G01 X164.076120 Y61.980660 Z-0.125000
G01 X167.493120 Y61.980660 Z-0.125000
G01 X167.487120 Y60.486660 Z-0.125000
G01 X167.380120 Y58.547660 Z-0.125000
G01 X167.062120 Y57.825660 Z-0.125000
G01 X166.535120 Y57.185660 Z-0.125000
G01 X165.803120 Y56.634660 Z-0.125000
G01 X164.871120 Y56.173660 Z-0.125000
G01 X163.340120 Y55.707660 Z-0.125000
G01 X161.639120 Y55.423660 Z-0.125000
G01 X159.915120 Y55.400660 Z-0.125000
G01 X159.914120 Y55.401660 Z-0.125000
G00 Z5.000000

(End cutting path id: text14)


(Start cutting path id: text14)
(Change tool to Default tool)

G00 Z5.000000
G00 X164.854120 Y57.695660

G01 Z-0.125000 F100.0(Penetrate)
G01 X165.451120 Y58.079660 Z-0.125000 F400.000000
G01 X165.760120 Y58.716660 Z-0.125000
G01 X165.752120 Y59.212660 Z-0.125000
G01 X165.590120 Y59.626660 Z-0.125000
G01 X165.308120 Y59.951660 Z-0.125000
G01 X164.936120 Y60.163660 Z-0.125000
G01 X164.503120 Y60.240660 Z-0.125000
G01 X164.029120 Y60.147660 Z-0.125000
G01 X163.634120 Y59.893660 Z-0.125000
G01 X163.355120 Y59.511660 Z-0.125000
G01 X163.227120 Y59.036660 Z-0.125000
G01 X163.445120 Y58.218660 Z-0.125000
G01 X163.813120 Y57.856660 Z-0.125000
G01 X164.290120 Y57.660660 Z-0.125000
G01 X164.854120 Y57.695660 Z-0.125000
G01 X164.854120 Y57.695660 Z-0.125000
G00 Z5.000000

(End cutting path id: text14)


(Start cutting path id: text14)
(Change tool to Default tool)

G00 Z5.000000
G00 X150.081120 Y62.886660

G01 Z-0.125000 F100.0(Penetrate)
G01 X149.277120 Y63.110660 Z-0.125000 F400.000000
G01 X148.575120 Y63.524660 Z-0.125000
G01 X147.978120 Y64.125660 Z-0.125000
G01 X147.487120 Y64.912660 Z-0.125000
G01 X147.110120 Y65.870660 Z-0.125000
G01 X146.787120 Y67.223660 Z-0.125000
G01 X146.509120 Y69.804660 Z-0.125000
G01 X146.603120 Y71.273660 Z-0.125000
G01 X146.914120 Y72.950660 Z-0.125000
G01 X147.406120 Y74.407660 Z-0.125000
G01 X147.929120 Y75.211660 Z-0.125000
G01 X148.597120 Y75.860660 Z-0.125000
G01 X149.392120 Y76.339660 Z-0.125000
G01 X150.294120 Y76.633660 Z-0.125000
G01 X155.740120 Y76.730660 Z-0.125000
G01 X160.659120 Y76.735660 Z-0.125000
G01 X160.659120 Y77.162660 Z-0.125000
G01 X160.659120 Y77.588660 Z-0.125000
G01 X157.242120 Y77.588660 Z-0.125000
G01 X153.825120 Y77.588660 Z-0.125000
G01 X153.831120 Y79.234660 Z-0.125000
G01 X153.864120 Y81.063660 Z-0.125000
G01 X154.033120 Y81.792660 Z-0.125000
G01 X154.316120 Y82.359660 Z-0.125000
G01 X155.182120 Y83.113660 Z-0.125000
G01 X156.837120 Y83.680660 Z-0.125000
G01 X159.353120 Y84.006660 Z-0.125000
G01 X162.015120 Y83.997660 Z-0.125000
G01 X164.267120 Y83.723660 Z-0.125000
G01 X165.367120 Y83.345660 Z-0.125000
G01 X166.288120 Y82.736660 Z-0.125000
G01 X166.980120 Y81.939660 Z-0.125000
G01 X167.392120 Y80.999660 Z-0.125000
G01 X167.487120 Y77.061660 Z-0.125000
G01 X167.474120 Y73.327660 Z-0.125000
G01 X167.224120 Y72.345660 Z-0.125000
G01 X166.709120 Y71.476660 Z-0.125000
G01 X166.114120 Y70.902660 Z-0.125000
G01 X165.443120 Y70.506660 Z-0.125000
G01 X164.670120 Y70.265660 Z-0.125000
G01 X160.701120 Y70.220660 Z-0.125000
G01 X157.088120 Y70.199660 Z-0.125000
G01 X156.271120 Y70.092660 Z-0.125000
G01 X155.193120 Y69.663660 Z-0.125000
G01 X154.253120 Y68.939660 Z-0.125000
G01 X153.421120 Y67.802660 Z-0.125000
G01 X153.004120 Y66.444660 Z-0.125000
G01 X152.977120 Y64.581660 Z-0.125000
G01 X152.970120 Y62.852660 Z-0.125000
G01 X151.627120 Y62.853660 Z-0.125000
G01 X150.080120 Y62.885660 Z-0.125000
G01 X150.081120 Y62.886660 Z-0.125000
G00 Z5.000000

(End cutting path id: text14)


(Start cutting path id: text14)
(Change tool to Default tool)

G00 Z5.000000
G00 X157.119120 Y79.380660

G01 Z-0.125000 F100.0(Penetrate)
G01 X157.543120 Y79.577660 Z-0.125000 F400.000000
G01 X157.864120 Y79.905660 Z-0.125000
G01 X158.053120 Y80.320660 Z-0.125000
G01 X158.081120 Y80.783660 Z-0.125000
G01 X157.843120 Y81.399660 Z-0.125000
G01 X157.350120 Y81.811660 Z-0.125000
G01 X156.808120 Y81.928660 Z-0.125000
G01 X156.152120 Y81.745660 Z-0.125000
G01 X155.687120 Y81.240660 Z-0.125000
G01 X155.551120 Y80.459660 Z-0.125000
G01 X155.890120 Y79.738660 Z-0.125000
G01 X156.590120 Y79.358660 Z-0.125000
G01 X157.119120 Y79.380660 Z-0.125000
G01 X157.119120 Y79.380660 Z-0.125000
G00 Z5.000000

(End cutting path id: text14)


(Start cutting path id: text14)
(Change tool to Default tool)

G00 Z5.000000
G00 X127.812120 Y57.695660

G01 Z-0.125000 F100.0(Penetrate)
G01 X128.410120 Y58.079660 Z-0.125000 F400.000000
G01 X128.718120 Y58.716660 Z-0.125000
G01 X128.710120 Y59.212660 Z-0.125000
G01 X128.548120 Y59.626660 Z-0.125000
G01 X128.266120 Y59.951660 Z-0.125000
G01 X127.894120 Y60.163660 Z-0.125000
G01 X127.461120 Y60.240660 Z-0.125000
G01 X126.987120 Y60.147660 Z-0.125000
G01 X126.592120 Y59.893660 Z-0.125000
G01 X126.313120 Y59.511660 Z-0.125000
G01 X126.186120 Y59.036660 Z-0.125000
G01 X126.403120 Y58.218660 Z-0.125000
G01 X126.771120 Y57.856660 Z-0.125000
G01 X127.248120 Y57.660660 Z-0.125000
G01 X127.813120 Y57.695660 Z-0.125000
G01 X127.812120 Y57.695660 Z-0.125000
G00 Z5.000000

(End cutting path id: text14)


(Start cutting path id: text14)
(Change tool to Default tool)

G00 Z5.000000
G00 X122.872120 Y55.401660

G01 Z-0.125000 F100.0(Penetrate)
G01 X120.813120 Y55.737660 Z-0.125000 F400.000000
G01 X119.415120 Y56.177660 Z-0.125000
G01 X118.344120 Y56.736660 Z-0.125000
G01 X117.266120 Y57.779660 Z-0.125000
G01 X116.955120 Y58.386660 Z-0.125000
G01 X116.803120 Y59.044660 Z-0.125000
G01 X116.789120 Y62.743660 Z-0.125000
G01 X116.824120 Y66.419660 Z-0.125000
G01 X116.996120 Y67.069660 Z-0.125000
G01 X117.425120 Y67.881660 Z-0.125000
G01 X118.036120 Y68.548660 Z-0.125000
G01 X118.787120 Y69.036660 Z-0.125000
G01 X119.636120 Y69.307660 Z-0.125000
G01 X119.833120 Y69.345660 Z-0.125000
G01 X123.685120 Y69.366660 Z-0.125000
G01 X127.494120 Y69.377660 Z-0.125000
G01 X127.687120 Y69.414660 Z-0.125000
G01 X128.940120 Y69.844660 Z-0.125000
G01 X129.999120 Y70.638660 Z-0.125000
G01 X130.898120 Y71.907660 Z-0.125000
G01 X131.286120 Y73.384660 Z-0.125000
G01 X131.304120 Y75.172660 Z-0.125000
G01 X131.304120 Y76.734660 Z-0.125000
G01 X132.639120 Y76.734660 Z-0.125000
G01 X134.168120 Y76.717660 Z-0.125000
G01 X135.198120 Y76.452660 Z-0.125000
G01 X136.036120 Y75.843660 Z-0.125000
G01 X136.508120 Y75.237660 Z-0.125000
G01 X136.901120 Y74.457660 Z-0.125000
G01 X137.524120 Y72.200660 Z-0.125000
G01 X137.752120 Y70.658660 Z-0.125000
G01 X137.804120 Y69.228660 Z-0.125000
G01 X137.678120 Y67.883660 Z-0.125000
G01 X137.375120 Y66.595660 Z-0.125000
G01 X136.797120 Y65.022660 Z-0.125000
G01 X136.163120 Y63.930660 Z-0.125000
G01 X135.417120 Y63.246660 Z-0.125000
G01 X134.502120 Y62.899660 Z-0.125000
G01 X134.310120 Y62.861660 Z-0.125000
G01 X128.964120 Y62.856660 Z-0.125000
G01 X123.618120 Y62.851660 Z-0.125000
G01 X123.618120 Y62.416660 Z-0.125000
G01 X123.618120 Y61.980660 Z-0.125000
G01 X127.035120 Y61.980660 Z-0.125000
G01 X130.452120 Y61.980660 Z-0.125000
G01 X130.446120 Y60.486660 Z-0.125000
G01 X130.339120 Y58.547660 Z-0.125000
G01 X130.020120 Y57.825660 Z-0.125000
G01 X129.493120 Y57.185660 Z-0.125000
G01 X128.761120 Y56.634660 Z-0.125000
G01 X127.830120 Y56.173660 Z-0.125000
G01 X126.298120 Y55.707660 Z-0.125000
G01 X124.598120 Y55.423660 Z-0.125000
G01 X122.873120 Y55.400660 Z-0.125000
G01 X122.872120 Y55.401660 Z-0.125000
G00 Z5.000000

(End cutting path id: text14)


(Start cutting path id: text14)
(Change tool to Default tool)

G00 Z5.000000
G00 X113.039120 Y62.886660

G01 Z-0.125000 F100.0(Penetrate)
G01 X112.235120 Y63.110660 Z-0.125000 F400.000000
G01 X111.534120 Y63.524660 Z-0.125000
G01 X110.936120 Y64.125660 Z-0.125000
G01 X110.445120 Y64.912660 Z-0.125000
G01 X110.068120 Y65.870660 Z-0.125000
G01 X109.745120 Y67.223660 Z-0.125000
G01 X109.467120 Y69.804660 Z-0.125000
G01 X109.561120 Y71.273660 Z-0.125000
G01 X109.872120 Y72.950660 Z-0.125000
G01 X110.364120 Y74.407660 Z-0.125000
G01 X110.887120 Y75.211660 Z-0.125000
G01 X111.555120 Y75.860660 Z-0.125000
G01 X112.350120 Y76.339660 Z-0.125000
G01 X113.252120 Y76.633660 Z-0.125000
G01 X118.698120 Y76.730660 Z-0.125000
G01 X123.618120 Y76.735660 Z-0.125000
G01 X123.618120 Y77.162660 Z-0.125000
G01 X123.618120 Y77.588660 Z-0.125000
G01 X120.201120 Y77.588660 Z-0.125000
G01 X116.784120 Y77.588660 Z-0.125000
G01 X116.790120 Y79.234660 Z-0.125000
G01 X116.823120 Y81.063660 Z-0.125000
G01 X116.991120 Y81.792660 Z-0.125000
G01 X117.275120 Y82.359660 Z-0.125000
G01 X118.140120 Y83.113660 Z-0.125000
G01 X119.795120 Y83.680660 Z-0.125000
G01 X122.311120 Y84.006660 Z-0.125000
G01 X124.974120 Y83.997660 Z-0.125000
G01 X127.225120 Y83.723660 Z-0.125000
G01 X128.325120 Y83.345660 Z-0.125000
G01 X129.247120 Y82.736660 Z-0.125000
G01 X129.938120 Y81.939660 Z-0.125000
G01 X130.350120 Y80.999660 Z-0.125000
G01 X130.445120 Y77.061660 Z-0.125000
G01 X130.432120 Y73.327660 Z-0.125000
G01 X130.182120 Y72.345660 Z-0.125000
G01 X129.667120 Y71.476660 Z-0.125000
G01 X129.073120 Y70.902660 Z-0.125000
G01 X128.401120 Y70.506660 Z-0.125000
G01 X127.629120 Y70.265660 Z-0.125000
G01 X123.659120 Y70.220660 Z-0.125000
G01 X120.047120 Y70.199660 Z-0.125000
G01 X119.230120 Y70.092660 Z-0.125000
G01 X118.151120 Y69.663660 Z-0.125000
G01 X117.211120 Y68.939660 Z-0.125000
G01 X116.379120 Y67.802660 Z-0.125000
G01 X115.962120 Y66.444660 Z-0.125000
G01 X115.935120 Y64.581660 Z-0.125000
G01 X115.928120 Y62.852660 Z-0.125000
G01 X114.586120 Y62.853660 Z-0.125000
G01 X113.038120 Y62.885660 Z-0.125000
G01 X113.039120 Y62.886660 Z-0.125000
G00 Z5.000000

(End cutting path id: text14)


(Start cutting path id: text14)
(Change tool to Default tool)

G00 Z5.000000
G00 X120.077120 Y79.380660

G01 Z-0.125000 F100.0(Penetrate)
G01 X120.502120 Y79.577660 Z-0.125000 F400.000000
G01 X120.823120 Y79.905660 Z-0.125000
G01 X121.011120 Y80.320660 Z-0.125000
G01 X121.039120 Y80.783660 Z-0.125000
G01 X120.802120 Y81.399660 Z-0.125000
G01 X120.308120 Y81.811660 Z-0.125000
G01 X119.766120 Y81.928660 Z-0.125000
G01 X119.110120 Y81.745660 Z-0.125000
G01 X118.646120 Y81.240660 Z-0.125000
G01 X118.509120 Y80.459660 Z-0.125000
G01 X118.849120 Y79.738660 Z-0.125000
G01 X119.548120 Y79.358660 Z-0.125000
G01 X120.077120 Y79.380660 Z-0.125000
G01 X120.077120 Y79.380660 Z-0.125000
G00 Z5.000000

(End cutting path id: text14)


(Start cutting path id: text14)
(Change tool to Default tool)

G00 Z5.000000
G00 X90.770924 Y57.695660

G01 Z-0.125000 F100.0(Penetrate)
G01 X91.368124 Y58.079660 Z-0.125000 F400.000000
G01 X91.676624 Y58.716660 Z-0.125000
G01 X91.668324 Y59.212660 Z-0.125000
G01 X91.506124 Y59.626660 Z-0.125000
G01 X91.224324 Y59.951660 Z-0.125000
G01 X90.852324 Y60.163660 Z-0.125000
G01 X90.419324 Y60.240660 Z-0.125000
G01 X89.945224 Y60.147660 Z-0.125000
G01 X89.550424 Y59.893660 Z-0.125000
G01 X89.271224 Y59.511660 Z-0.125000
G01 X89.143824 Y59.036660 Z-0.125000
G01 X89.361124 Y58.218660 Z-0.125000
G01 X89.729224 Y57.856660 Z-0.125000
G01 X90.206024 Y57.660660 Z-0.125000
G01 X90.771024 Y57.695660 Z-0.125000
G01 X90.770924 Y57.695660 Z-0.125000
G00 Z5.000000

(End cutting path id: text14)


(Start cutting path id: text14)
(Change tool to Default tool)

G00 Z5.000000
G00 X85.830924 Y55.401660

G01 Z-0.125000 F100.0(Penetrate)
G01 X83.771124 Y55.737660 Z-0.125000 F400.000000
G01 X82.373324 Y56.177660 Z-0.125000
G01 X81.302324 Y56.736660 Z-0.125000
G01 X80.224124 Y57.779660 Z-0.125000
G01 X79.913824 Y58.386660 Z-0.125000
G01 X79.761124 Y59.044660 Z-0.125000
G01 X79.747224 Y62.743660 Z-0.125000
G01 X79.782324 Y66.419660 Z-0.125000
G01 X79.954824 Y67.069660 Z-0.125000
G01 X80.383624 Y67.881660 Z-0.125000
G01 X80.994524 Y68.548660 Z-0.125000
G01 X81.745524 Y69.036660 Z-0.125000
G01 X82.594524 Y69.307660 Z-0.125000
G01 X82.791524 Y69.345660 Z-0.125000
G01 X86.643024 Y69.366660 Z-0.125000
G01 X90.452724 Y69.377660 Z-0.125000
G01 X90.645324 Y69.414660 Z-0.125000
G01 X91.898324 Y69.844660 Z-0.125000
G01 X92.957224 Y70.638660 Z-0.125000
G01 X93.856724 Y71.907660 Z-0.125000
G01 X94.244524 Y73.384660 Z-0.125000
G01 X94.262424 Y75.172660 Z-0.125000
G01 X94.262424 Y76.734660 Z-0.125000
G01 X95.597924 Y76.734660 Z-0.125000
G01 X97.126024 Y76.717660 Z-0.125000
G01 X98.156324 Y76.452660 Z-0.125000
G01 X98.994924 Y75.843660 Z-0.125000
G01 X99.466124 Y75.237660 Z-0.125000
G01 X99.859124 Y74.457660 Z-0.125000
G01 X100.482120 Y72.200660 Z-0.125000
G01 X100.710120 Y70.658660 Z-0.125000
G01 X100.762120 Y69.228660 Z-0.125000
G01 X100.636120 Y67.883660 Z-0.125000
G01 X100.333120 Y66.595660 Z-0.125000
G01 X99.755124 Y65.022660 Z-0.125000
G01 X99.121124 Y63.930660 Z-0.125000
G01 X98.375324 Y63.246660 Z-0.125000
G01 X97.460924 Y62.899660 Z-0.125000
G01 X97.268324 Y62.861660 Z-0.125000
G01 X91.922224 Y62.856660 Z-0.125000
G01 X86.576024 Y62.851660 Z-0.125000
G01 X86.576024 Y62.416660 Z-0.125000
G01 X86.576024 Y61.980660 Z-0.125000
G01 X89.993024 Y61.980660 Z-0.125000
G01 X93.410024 Y61.980660 Z-0.125000
G01 X93.403824 Y60.486660 Z-0.125000
G01 X93.296724 Y58.547660 Z-0.125000
G01 X92.978324 Y57.825660 Z-0.125000
G01 X92.451124 Y57.185660 Z-0.125000
G01 X91.719524 Y56.634660 Z-0.125000
G01 X90.787824 Y56.173660 Z-0.125000
G01 X89.256424 Y55.707660 Z-0.125000
G01 X87.555924 Y55.423660 Z-0.125000
G01 X85.831024 Y55.400660 Z-0.125000
G01 X85.830924 Y55.401660 Z-0.125000
G00 Z5.000000

(End cutting path id: text14)


(Start cutting path id: text14)
(Change tool to Default tool)

G00 Z5.000000
G00 X75.997524 Y62.886660

G01 Z-0.125000 F100.0(Penetrate)
G01 X75.193624 Y63.110660 Z-0.125000 F400.000000
G01 X74.492124 Y63.524660 Z-0.125000
G01 X73.894824 Y64.125660 Z-0.125000
G01 X73.403424 Y64.912660 Z-0.125000
G01 X73.026324 Y65.870660 Z-0.125000
G01 X72.703824 Y67.223660 Z-0.125000
G01 X72.425724 Y69.804660 Z-0.125000
G01 X72.519424 Y71.273660 Z-0.125000
G01 X72.830324 Y72.950660 Z-0.125000
G01 X73.322724 Y74.407660 Z-0.125000
G01 X73.845424 Y75.211660 Z-0.125000
G01 X74.513924 Y75.860660 Z-0.125000
G01 X75.308724 Y76.339660 Z-0.125000
G01 X76.210324 Y76.633660 Z-0.125000
G01 X81.656924 Y76.730660 Z-0.125000
G01 X86.576024 Y76.735660 Z-0.125000
G01 X86.576024 Y77.162660 Z-0.125000
G01 X86.576024 Y77.588660 Z-0.125000
G01 X83.159024 Y77.588660 Z-0.125000
G01 X79.742024 Y77.588660 Z-0.125000
G01 X79.748224 Y79.234660 Z-0.125000
G01 X79.781324 Y81.063660 Z-0.125000
G01 X79.949924 Y81.792660 Z-0.125000
G01 X80.233424 Y82.359660 Z-0.125000
G01 X81.099124 Y83.113660 Z-0.125000
G01 X82.754024 Y83.680660 Z-0.125000
G01 X85.269724 Y84.006660 Z-0.125000
G01 X87.932324 Y83.997660 Z-0.125000
G01 X90.183924 Y83.723660 Z-0.125000
G01 X91.284024 Y83.345660 Z-0.125000
G01 X92.205224 Y82.736660 Z-0.125000
G01 X92.897124 Y81.939660 Z-0.125000
G01 X93.309224 Y80.999660 Z-0.125000
G01 X93.403924 Y77.061660 Z-0.125000
G01 X93.390724 Y73.327660 Z-0.125000
G01 X93.141124 Y72.345660 Z-0.125000
G01 X92.625724 Y71.476660 Z-0.125000
G01 X92.031524 Y70.902660 Z-0.125000
G01 X91.360124 Y70.506660 Z-0.125000
G01 X90.587524 Y70.265660 Z-0.125000
G01 X86.617724 Y70.220660 Z-0.125000
G01 X83.005524 Y70.199660 Z-0.125000
G01 X82.188424 Y70.092660 Z-0.125000
G01 X81.109924 Y69.663660 Z-0.125000
G01 X80.169624 Y68.939660 Z-0.125000
G01 X79.338124 Y67.802660 Z-0.125000
G01 X78.920724 Y66.444660 Z-0.125000
G01 X78.894224 Y64.581660 Z-0.125000
G01 X78.887324 Y62.852660 Z-0.125000
G01 X77.544424 Y62.853660 Z-0.125000
G01 X75.997124 Y62.885660 Z-0.125000
G01 X75.997524 Y62.886660 Z-0.125000
G00 Z5.000000

(End cutting path id: text14)


(Start cutting path id: text14)
(Change tool to Default tool)

G00 Z5.000000
G00 X83.035824 Y79.380660

G01 Z-0.125000 F100.0(Penetrate)
G01 X83.460124 Y79.577660 Z-0.125000 F400.000000
G01 X83.781024 Y79.905660 Z-0.125000
G01 X83.969824 Y80.320660 Z-0.125000
G01 X83.997824 Y80.783660 Z-0.125000
G01 X83.760224 Y81.399660 Z-0.125000
G01 X83.266924 Y81.811660 Z-0.125000
G01 X82.724524 Y81.928660 Z-0.125000
G01 X82.068324 Y81.745660 Z-0.125000
G01 X81.604124 Y81.240660 Z-0.125000
G01 X81.467924 Y80.459660 Z-0.125000
G01 X81.807124 Y79.738660 Z-0.125000
G01 X82.506824 Y79.358660 Z-0.125000
G01 X83.035824 Y79.380660 Z-0.125000
G01 X83.035824 Y79.380660 Z-0.125000
G00 Z5.000000

(End cutting path id: text14)


(Start cutting path id: text14)
(Change tool to Default tool)

G00 Z5.000000
G00 X53.729224 Y57.695660

G01 Z-0.125000 F100.0(Penetrate)
G01 X54.326424 Y58.079660 Z-0.125000 F400.000000
G01 X54.635024 Y58.716660 Z-0.125000
G01 X54.626724 Y59.212660 Z-0.125000
G01 X54.464424 Y59.626660 Z-0.125000
G01 X54.182624 Y59.951660 Z-0.125000
G01 X53.810624 Y60.164660 Z-0.125000
G01 X53.377624 Y60.240660 Z-0.125000
G01 X52.903624 Y60.147660 Z-0.125000
G01 X52.508824 Y59.893660 Z-0.125000
G01 X52.229524 Y59.511660 Z-0.125000
G01 X52.102124 Y59.036660 Z-0.125000
G01 X52.319424 Y58.218660 Z-0.125000
G01 X52.687524 Y57.856660 Z-0.125000
G01 X53.164324 Y57.660660 Z-0.125000
G01 X53.729324 Y57.695660 Z-0.125000
G01 X53.729224 Y57.695660 Z-0.125000
G00 Z5.000000

(End cutting path id: text14)


(Start cutting path id: text14)
(Change tool to Default tool)

G00 Z5.000000
G00 X48.789224 Y55.401660

G01 Z-0.125000 F100.0(Penetrate)
G01 X46.729424 Y55.737660 Z-0.125000 F400.000000
G01 X45.331724 Y56.177660 Z-0.125000
G01 X44.260724 Y56.736660 Z-0.125000
G01 X43.182524 Y57.779660 Z-0.125000
G01 X42.872224 Y58.386660 Z-0.125000
G01 X42.719524 Y59.044660 Z-0.125000
G01 X42.705524 Y62.743660 Z-0.125000
G01 X42.740724 Y66.419660 Z-0.125000
G01 X42.913124 Y67.069660 Z-0.125000
G01 X43.341924 Y67.881660 Z-0.125000
G01 X43.952924 Y68.548660 Z-0.125000
G01 X44.703924 Y69.036660 Z-0.125000
G01 X45.552824 Y69.307660 Z-0.125000
G01 X45.749824 Y69.345660 Z-0.125000
G01 X49.601424 Y69.366660 Z-0.125000
G01 X53.411124 Y69.377660 Z-0.125000
G01 X53.603724 Y69.414660 Z-0.125000
G01 X54.856724 Y69.844660 Z-0.125000
G01 X55.915524 Y70.638660 Z-0.125000
G01 X56.815024 Y71.907660 Z-0.125000
G01 X57.202924 Y73.384660 Z-0.125000
G01 X57.220824 Y75.172660 Z-0.125000
G01 X57.220824 Y76.734660 Z-0.125000
G01 X58.556224 Y76.734660 Z-0.125000
G01 X60.084324 Y76.717660 Z-0.125000
G01 X61.114624 Y76.452660 Z-0.125000
G01 X61.953224 Y75.843660 Z-0.125000
G01 X62.424424 Y75.237660 Z-0.125000
G01 X62.817324 Y74.457660 Z-0.125000
G01 X63.440924 Y72.200660 Z-0.125000
G01 X63.668724 Y70.658660 Z-0.125000
G01 X63.720324 Y69.228660 Z-0.125000
G01 X63.594724 Y67.883660 Z-0.125000
G01 X63.291524 Y66.595660 Z-0.125000
G01 X62.713624 Y65.022660 Z-0.125000
G01 X62.079724 Y63.930660 Z-0.125000
G01 X61.333624 Y63.246660 Z-0.125000
G01 X60.419224 Y62.899660 Z-0.125000
G01 X60.226624 Y62.861660 Z-0.125000
G01 X54.880524 Y62.856660 Z-0.125000
G01 X49.534424 Y62.851660 Z-0.125000
G01 X49.534424 Y62.416660 Z-0.125000
G01 X49.534424 Y61.980660 Z-0.125000
G01 X52.951424 Y61.980660 Z-0.125000
G01 X56.368424 Y61.980660 Z-0.125000
G01 X56.362224 Y60.486660 Z-0.125000
G01 X56.255124 Y58.547660 Z-0.125000
G01 X55.936624 Y57.825660 Z-0.125000
G01 X55.409524 Y57.185660 Z-0.125000
G01 X54.677924 Y56.634660 Z-0.125000
G01 X53.746224 Y56.173660 Z-0.125000
G01 X52.214724 Y55.707660 Z-0.125000
G01 X50.514224 Y55.423660 Z-0.125000
G01 X48.789424 Y55.400660 Z-0.125000
G01 X48.789224 Y55.401660 Z-0.125000
G00 Z5.000000

(End cutting path id: text14)


(Start cutting path id: text14)
(Change tool to Default tool)

G00 Z5.000000
G00 X38.955824 Y62.886660

G01 Z-0.125000 F100.0(Penetrate)
G01 X38.151924 Y63.110660 Z-0.125000 F400.000000
G01 X37.450424 Y63.524660 Z-0.125000
G01 X36.853124 Y64.125660 Z-0.125000
G01 X36.361724 Y64.912660 Z-0.125000
G01 X35.984624 Y65.870660 Z-0.125000
G01 X35.662124 Y67.223660 Z-0.125000
G01 X35.384024 Y69.804660 Z-0.125000
G01 X35.477724 Y71.273660 Z-0.125000
G01 X35.788624 Y72.950660 Z-0.125000
G01 X36.281124 Y74.407660 Z-0.125000
G01 X36.803824 Y75.211660 Z-0.125000
G01 X37.472224 Y75.860660 Z-0.125000
G01 X38.267024 Y76.339660 Z-0.125000
G01 X39.168624 Y76.633660 Z-0.125000
G01 X44.615324 Y76.730660 Z-0.125000
G01 X49.534424 Y76.735660 Z-0.125000
G01 X49.534424 Y77.162660 Z-0.125000
G01 X49.534424 Y77.588660 Z-0.125000
G01 X46.117424 Y77.588660 Z-0.125000
G01 X42.700424 Y77.588660 Z-0.125000
G01 X42.706624 Y79.234660 Z-0.125000
G01 X42.739624 Y81.063660 Z-0.125000
G01 X42.908324 Y81.792660 Z-0.125000
G01 X43.191824 Y82.359660 Z-0.125000
G01 X44.057524 Y83.113660 Z-0.125000
G01 X45.712324 Y83.680660 Z-0.125000
G01 X48.228024 Y84.006660 Z-0.125000
G01 X50.890624 Y83.997660 Z-0.125000
G01 X53.142324 Y83.723660 Z-0.125000
G01 X54.242324 Y83.345660 Z-0.125000
G01 X55.163624 Y82.736660 Z-0.125000
G01 X55.855524 Y81.939660 Z-0.125000
G01 X56.267524 Y80.999660 Z-0.125000
G01 X56.362224 Y77.061660 Z-0.125000
G01 X56.349124 Y73.327660 Z-0.125000
G01 X56.099424 Y72.345660 Z-0.125000
G01 X55.584124 Y71.476660 Z-0.125000
G01 X54.989824 Y70.902660 Z-0.125000
G01 X54.318524 Y70.506660 Z-0.125000
G01 X53.545924 Y70.265660 Z-0.125000
G01 X49.576024 Y70.220660 Z-0.125000
G01 X45.963924 Y70.199660 Z-0.125000
G01 X45.146724 Y70.093660 Z-0.125000
G01 X44.068224 Y69.663660 Z-0.125000
G01 X43.128024 Y68.939660 Z-0.125000
G01 X42.296424 Y67.802660 Z-0.125000
G01 X41.879024 Y66.444660 Z-0.125000
G01 X41.852524 Y64.581660 Z-0.125000
G01 X41.845624 Y62.852660 Z-0.125000
G01 X40.502824 Y62.853660 Z-0.125000
G01 X38.955524 Y62.885660 Z-0.125000
G01 X38.955824 Y62.886660 Z-0.125000
G00 Z5.000000

(End cutting path id: text14)


(Start cutting path id: text14)
(Change tool to Default tool)

G00 Z5.000000
G00 X45.994124 Y79.380660

G01 Z-0.125000 F100.0(Penetrate)
G01 X46.418524 Y79.577660 Z-0.125000 F400.000000
G01 X46.739424 Y79.905660 Z-0.125000
G01 X46.928224 Y80.320660 Z-0.125000
G01 X46.956224 Y80.783660 Z-0.125000
G01 X46.718524 Y81.399660 Z-0.125000
G01 X46.225324 Y81.811660 Z-0.125000
G01 X45.682824 Y81.928660 Z-0.125000
G01 X45.026724 Y81.745660 Z-0.125000
G01 X44.562424 Y81.240660 Z-0.125000
G01 X44.426324 Y80.459660 Z-0.125000
G01 X44.765424 Y79.738660 Z-0.125000
G01 X45.465124 Y79.358660 Z-0.125000
G01 X45.994124 Y79.380660 Z-0.125000
G01 X45.994124 Y79.380660 Z-0.125000
G00 Z5.000000

(End cutting path id: text14)


(Start cutting path id: text14)
(Change tool to Default tool)

G00 Z5.000000
G00 X9.866624 Y101.459660

G01 Z-0.125000 F100.0(Penetrate)
G01 X9.866624 Y112.042660 Z-0.125000 F400.000000
G01 X105.116120 Y112.042660 Z-0.125000
G01 X200.366120 Y112.042660 Z-0.125000
G01 X200.366120 Y101.459660 Z-0.125000
G01 X200.366120 Y90.876660 Z-0.125000
G01 X105.116120 Y90.876660 Z-0.125000
G01 X9.866624 Y90.876660 Z-0.125000
G01 X9.866624 Y101.459660 Z-0.125000
G00 Z5.000000

(End cutting path id: text14)


(Start cutting path id: text14)
(Change tool to Default tool)

G00 Z5.000000
G00 X25.912124 Y122.064460

G01 Z-0.125000 F100.0(Penetrate)
G01 X16.134624 Y122.064460 Z-0.125000 F400.000000
G01 X15.321624 Y122.147860 Z-0.125000
G01 X14.466924 Y122.429260 Z-0.125000
G01 X13.664224 Y122.908760 Z-0.125000
G01 X12.976324 Y123.628060 Z-0.125000
G01 X12.507224 Y124.607860 Z-0.125000
G01 X12.330024 Y125.869060 Z-0.125000
G01 X12.330024 Y133.207360 Z-0.125000
G01 X12.413424 Y134.009960 Z-0.125000
G01 X12.694824 Y134.864760 Z-0.125000
G01 X13.184724 Y135.677760 Z-0.125000
G01 X13.904024 Y136.355360 Z-0.125000
G01 X14.883824 Y136.834860 Z-0.125000
G01 X16.134624 Y137.012060 Z-0.125000
G01 X25.912124 Y137.012060 Z-0.125000
G01 X25.912124 Y134.301860 Z-0.125000
G01 X16.134624 Y134.301860 Z-0.125000
G01 X15.665624 Y134.231460 Z-0.125000
G01 X15.321624 Y134.020460 Z-0.125000
G01 X15.110524 Y133.671260 Z-0.125000
G01 X15.040224 Y133.186560 Z-0.125000
G01 X15.040224 Y125.869060 Z-0.125000
G01 X15.110524 Y125.405260 Z-0.125000
G01 X15.321624 Y125.056060 Z-0.125000
G01 X15.670824 Y124.844960 Z-0.125000
G01 X16.134624 Y124.774660 Z-0.125000
G01 X25.912124 Y124.774660 Z-0.125000
G01 X25.912124 Y122.064460 Z-0.125000
G00 Z5.000000

(End cutting path id: text14)


(Start cutting path id: text14)
(Change tool to Default tool)

G00 Z5.000000
G00 X30.909824 Y122.064460

G01 Z-0.125000 F100.0(Penetrate)
G01 X28.199724 Y122.064460 Z-0.125000 F400.000000
G01 X28.199724 Y138.096060 Z-0.125000
G01 X30.909824 Y138.096060 Z-0.125000
G01 X30.909824 Y122.064460 Z-0.125000
G00 Z5.000000

(End cutting path id: text14)


(Start cutting path id: text14)
(Change tool to Default tool)

G00 Z5.000000
G00 X40.687324 Y122.064460

G01 Z-0.125000 F100.0(Penetrate)
G01 X37.977124 Y122.064460 Z-0.125000 F400.000000
G01 X37.977124 Y129.538260 Z-0.125000
G01 X37.909324 Y130.004660 Z-0.125000
G01 X37.706124 Y130.340860 Z-0.125000
G01 X37.367324 Y130.551960 Z-0.125000
G01 X36.893024 Y130.622260 Z-0.125000
G01 X32.004324 Y130.622260 Z-0.125000
G01 X32.004324 Y133.332460 Z-0.125000
G01 X36.893024 Y133.332460 Z-0.125000
G01 X37.706124 Y133.238660 Z-0.125000
G01 X38.550424 Y132.967660 Z-0.125000
G01 X39.363424 Y132.477760 Z-0.125000
G01 X40.041024 Y131.758460 Z-0.125000
G01 X40.510024 Y130.789060 Z-0.125000
G01 X40.687224 Y129.538260 Z-0.125000
G01 X40.687324 Y122.064460 Z-0.125000
G00 Z5.000000

(End cutting path id: text14)


(Start cutting path id: text14)
(Change tool to Default tool)

G00 Z5.000000
G00 X45.903924 Y122.064460

G01 Z-0.125000 F100.0(Penetrate)
G01 X43.193824 Y122.064460 Z-0.125000 F400.000000
G01 X43.193824 Y133.332460 Z-0.125000
G01 X45.903924 Y133.332460 Z-0.125000
G01 X45.903924 Y122.064460 Z-0.125000
G00 Z5.000000

(End cutting path id: text14)


(Start cutting path id: text14)
(Change tool to Default tool)

G00 Z5.000000
G00 X59.397024 Y122.064460

G01 Z-0.125000 F100.0(Penetrate)
G01 X52.048324 Y122.064460 Z-0.125000 F400.000000
G01 X50.818324 Y122.262460 Z-0.125000
G01 X49.577924 Y122.908760 Z-0.125000
G01 X49.059324 Y123.432560 Z-0.125000
G01 X48.629324 Y124.086660 Z-0.125000
G01 X48.347924 Y124.897060 Z-0.125000
G01 X48.254124 Y125.869060 Z-0.125000
G01 X48.254124 Y129.538260 Z-0.125000
G01 X48.337524 Y130.351260 Z-0.125000
G01 X48.618924 Y131.195560 Z-0.125000
G01 X49.098424 Y132.008660 Z-0.125000
G01 X49.817624 Y132.686160 Z-0.125000
G01 X50.797524 Y133.155260 Z-0.125000
G01 X52.048324 Y133.332460 Z-0.125000
G01 X59.397024 Y133.332460 Z-0.125000
G01 X59.397024 Y130.622260 Z-0.125000
G01 X52.048324 Y130.622260 Z-0.125000
G01 X51.579224 Y130.554560 Z-0.125000
G01 X51.235324 Y130.351260 Z-0.125000
G01 X51.032024 Y130.007260 Z-0.125000
G01 X50.964224 Y129.517360 Z-0.125000
G01 X50.964224 Y125.869060 Z-0.125000
G01 X51.034624 Y125.400060 Z-0.125000
G01 X51.245724 Y125.056060 Z-0.125000
G01 X51.592324 Y124.844960 Z-0.125000
G01 X52.069224 Y124.774660 Z-0.125000
G01 X59.397024 Y124.774660 Z-0.125000
G01 X59.397024 Y122.064460 Z-0.125000
G00 Z5.000000

(End cutting path id: text14)


(Start cutting path id: text14)
(Change tool to Default tool)

G00 Z5.000000
G00 X73.182024 Y125.796160

G01 Z-0.125000 F100.0(Penetrate)
G01 X72.983924 Y124.576560 Z-0.125000 F400.000000
G01 X72.337624 Y123.367460 Z-0.125000
G01 X71.829524 Y122.859260 Z-0.125000
G01 X71.180624 Y122.439760 Z-0.125000
G01 X70.393624 Y122.158260 Z-0.125000
G01 X69.450324 Y122.064460 Z-0.125000
G01 X64.561624 Y122.064460 Z-0.125000
G01 X63.342024 Y122.262460 Z-0.125000
G01 X62.132924 Y122.898360 Z-0.125000
G01 X61.624724 Y123.411760 Z-0.125000
G01 X61.205124 Y124.055360 Z-0.125000
G01 X60.923724 Y124.850160 Z-0.125000
G01 X60.829924 Y125.796160 Z-0.125000
G01 X61.027924 Y127.015660 Z-0.125000
G01 X61.663824 Y128.224860 Z-0.125000
G01 X62.177224 Y128.740860 Z-0.125000
G01 X62.820824 Y129.162960 Z-0.125000
G01 X63.615624 Y129.444460 Z-0.125000
G01 X64.561624 Y129.538260 Z-0.125000
G01 X69.450324 Y129.538260 Z-0.125000
G01 X69.450324 Y126.953160 Z-0.125000
G01 X64.561624 Y126.953160 Z-0.125000
G01 X64.071724 Y126.867160 Z-0.125000
G01 X63.706824 Y126.609160 Z-0.125000
G01 X63.480124 Y126.233960 Z-0.125000
G01 X63.404524 Y125.775260 Z-0.125000
G01 X63.490524 Y125.301060 Z-0.125000
G01 X63.748524 Y124.941360 Z-0.125000
G01 X64.134224 Y124.722460 Z-0.125000
G01 X64.582424 Y124.649560 Z-0.125000
G01 X69.450324 Y124.649560 Z-0.125000
G01 X69.940224 Y124.732960 Z-0.125000
G01 X70.305024 Y124.983060 Z-0.125000
G01 X70.531724 Y125.358360 Z-0.125000
G01 X70.607324 Y125.816960 Z-0.125000
G01 X70.607324 Y129.600760 Z-0.125000
G01 X70.523924 Y130.077660 Z-0.125000
G01 X70.273724 Y130.445060 Z-0.125000
G01 X69.906324 Y130.679660 Z-0.125000
G01 X69.450324 Y130.757760 Z-0.125000
G01 X63.498424 Y130.757760 Z-0.125000
G01 X63.498424 Y133.332460 Z-0.125000
G01 X69.450324 Y133.332460 Z-0.125000
G01 X70.659424 Y133.134360 Z-0.125000
G01 X71.868624 Y132.488160 Z-0.125000
G01 X72.384524 Y131.979960 Z-0.125000
G01 X72.806724 Y131.331160 Z-0.125000
G01 X73.088124 Y130.544160 Z-0.125000
G01 X73.182024 Y129.600760 Z-0.125000
G01 X73.182024 Y125.796160 Z-0.125000
G00 Z5.000000

(End cutting path id: text14)


(Start cutting path id: text14)
(Change tool to Default tool)

G00 Z5.000000
G00 X87.738224 Y120.980360

G01 Z-0.125000 F100.0(Penetrate)
G01 X87.561024 Y119.729560 Z-0.125000 F400.000000
G01 X87.092024 Y118.749760 Z-0.125000
G01 X86.414424 Y118.030460 Z-0.125000
G01 X85.601424 Y117.540560 Z-0.125000
G01 X84.746724 Y117.269560 Z-0.125000
G01 X83.933624 Y117.175760 Z-0.125000
G01 X79.044924 Y117.175760 Z-0.125000
G01 X79.044924 Y119.885960 Z-0.125000
G01 X83.933624 Y119.885960 Z-0.125000
G01 X84.415724 Y119.956260 Z-0.125000
G01 X84.757124 Y120.167360 Z-0.125000
G01 X84.960324 Y120.511360 Z-0.125000
G01 X85.028124 Y120.980360 Z-0.125000
G01 X85.028124 Y129.538260 Z-0.125000
G01 X84.960324 Y130.004660 Z-0.125000
G01 X84.757124 Y130.340860 Z-0.125000
G01 X84.415724 Y130.551960 Z-0.125000
G01 X83.933624 Y130.622260 Z-0.125000
G01 X79.044924 Y130.622260 Z-0.125000
G01 X78.596724 Y130.544160 Z-0.125000
G01 X78.252724 Y130.309560 Z-0.125000
G01 X78.033824 Y129.965660 Z-0.125000
G01 X77.960824 Y129.538260 Z-0.125000
G01 X77.960824 Y125.869060 Z-0.125000
G01 X78.031224 Y125.400060 Z-0.125000
G01 X78.242324 Y125.056060 Z-0.125000
G01 X78.588924 Y124.844960 Z-0.125000
G01 X79.065724 Y124.774660 Z-0.125000
G01 X83.933624 Y124.774660 Z-0.125000
G01 X83.933624 Y122.064460 Z-0.125000
G01 X79.044924 Y122.064460 Z-0.125000
G01 X78.231924 Y122.147860 Z-0.125000
G01 X77.377124 Y122.429260 Z-0.125000
G01 X76.574524 Y122.908760 Z-0.125000
G01 X75.896924 Y123.628060 Z-0.125000
G01 X75.427924 Y124.607860 Z-0.125000
G01 X75.250724 Y125.869060 Z-0.125000
G01 X75.250724 Y129.538260 Z-0.125000
G01 X75.334124 Y130.351260 Z-0.125000
G01 X75.615524 Y131.195560 Z-0.125000
G01 X76.095024 Y132.008660 Z-0.125000
G01 X76.814224 Y132.686160 Z-0.125000
G01 X77.794124 Y133.155260 Z-0.125000
G01 X79.044924 Y133.332460 Z-0.125000
G01 X83.933624 Y133.332460 Z-0.125000
G01 X84.746724 Y133.238660 Z-0.125000
G01 X85.601424 Y132.967660 Z-0.125000
G01 X86.414424 Y132.477760 Z-0.125000
G01 X87.092024 Y131.758460 Z-0.125000
G01 X87.561024 Y130.789060 Z-0.125000
G01 X87.738224 Y129.538260 Z-0.125000
G01 X87.738224 Y120.980360 Z-0.125000
G00 Z5.000000

(End cutting path id: text14)


(Start cutting path id: text14)
(Change tool to Default tool)

G00 Z5.000000
G00 X99.751124 Y129.517360

G01 Z-0.125000 F100.0(Penetrate)
G01 X99.681124 Y130.007260 Z-0.125000 F400.000000
G01 X99.470124 Y130.351260 Z-0.125000
G01 X99.126124 Y130.554560 Z-0.125000
G01 X98.656724 Y130.622260 Z-0.125000
G01 X93.788824 Y130.622260 Z-0.125000
G01 X93.311924 Y130.551960 Z-0.125000
G01 X92.965324 Y130.340860 Z-0.125000
G01 X92.754324 Y130.004660 Z-0.125000
G01 X92.683924 Y129.538260 Z-0.125000
G01 X92.683924 Y125.869060 Z-0.125000
G01 X92.754324 Y125.400060 Z-0.125000
G01 X92.965324 Y125.056060 Z-0.125000
G01 X93.311924 Y124.844960 Z-0.125000
G01 X93.788824 Y124.774660 Z-0.125000
G01 X98.656724 Y124.774660 Z-0.125000
G01 X99.139124 Y124.844960 Z-0.125000
G01 X99.480124 Y125.056060 Z-0.125000
G01 X99.683124 Y125.400060 Z-0.125000
G01 X99.751124 Y125.869060 Z-0.125000
G01 X99.751124 Y129.517360 Z-0.125000
G00 Z5.000000

(End cutting path id: text14)


(Start cutting path id: text14)
(Change tool to Default tool)

G00 Z5.000000
G00 X102.461120 Y125.869060

G01 Z-0.125000 F100.0(Penetrate)
G01 X102.284120 Y124.607860 Z-0.125000 F400.000000
G01 X101.815120 Y123.628060 Z-0.125000
G01 X101.137120 Y122.908760 Z-0.125000
G01 X100.324120 Y122.429260 Z-0.125000
G01 X99.470124 Y122.147860 Z-0.125000
G01 X98.656724 Y122.064460 Z-0.125000
G01 X93.768024 Y122.064460 Z-0.125000
G01 X92.538024 Y122.262460 Z-0.125000
G01 X91.297624 Y122.908760 Z-0.125000
G01 X90.779024 Y123.432560 Z-0.125000
G01 X90.349024 Y124.086660 Z-0.125000
G01 X90.067624 Y124.897060 Z-0.125000
G01 X89.973824 Y125.869060 Z-0.125000
G01 X89.973824 Y129.538260 Z-0.125000
G01 X90.067624 Y130.499860 Z-0.125000
G01 X90.349024 Y131.299860 Z-0.125000
G01 X90.779024 Y131.959160 Z-0.125000
G01 X91.297624 Y132.477760 Z-0.125000
G01 X92.538024 Y133.134360 Z-0.125000
G01 X93.768024 Y133.332460 Z-0.125000
G01 X98.656724 Y133.332460 Z-0.125000
G01 X99.621124 Y133.238660 Z-0.125000
G01 X100.429120 Y132.957160 Z-0.125000
G01 X101.088120 Y132.532460 Z-0.125000
G01 X101.606120 Y132.008660 Z-0.125000
G01 X102.253120 Y130.778660 Z-0.125000
G01 X102.461120 Y129.538260 Z-0.125000
G01 X102.461120 Y125.869060 Z-0.125000
G00 Z5.000000

(End cutting path id: text14)


(Start cutting path id: text14)
(Change tool to Default tool)

G00 Z5.000000
G00 X126.873120 Y130.757760

G01 Z-0.125000 F100.0(Penetrate)
G01 X126.643120 Y129.100460 Z-0.125000 F400.000000
G01 X126.018120 Y127.807860 Z-0.125000
G01 X125.122120 Y126.859360 Z-0.125000
G01 X124.048120 Y126.213060 Z-0.125000
G01 X122.922120 Y125.848260 Z-0.125000
G01 X121.859120 Y125.733560 Z-0.125000
G01 X115.730120 Y125.733560 Z-0.125000
G01 X115.730120 Y128.443760 Z-0.125000
G01 X121.859120 Y128.443760 Z-0.125000
G01 X122.797120 Y128.652260 Z-0.125000
G01 X123.527120 Y129.121260 Z-0.125000
G01 X123.996120 Y129.819660 Z-0.125000
G01 X124.163120 Y130.757760 Z-0.125000
G01 X124.163120 Y131.987760 Z-0.125000
G01 X123.944120 Y132.925960 Z-0.125000
G01 X123.485120 Y133.655560 Z-0.125000
G01 X122.797120 Y134.124660 Z-0.125000
G01 X121.859120 Y134.301860 Z-0.125000
G01 X115.751120 Y134.301860 Z-0.125000
G01 X115.274120 Y134.231460 Z-0.125000
G01 X114.927120 Y134.020460 Z-0.125000
G01 X114.716120 Y133.676460 Z-0.125000
G01 X114.646120 Y133.207360 Z-0.125000
G01 X114.646120 Y122.064460 Z-0.125000
G01 X111.936120 Y122.064460 Z-0.125000
G01 X111.936120 Y133.207360 Z-0.125000
G01 X112.029120 Y134.171560 Z-0.125000
G01 X112.311120 Y134.979360 Z-0.125000
G01 X112.741120 Y135.638660 Z-0.125000
G01 X113.259120 Y136.157260 Z-0.125000
G01 X114.500120 Y136.803560 Z-0.125000
G01 X115.730120 Y137.012060 Z-0.125000
G01 X121.859120 Y137.012060 Z-0.125000
G01 X123.506120 Y136.772260 Z-0.125000
G01 X124.788120 Y136.146860 Z-0.125000
G01 X125.737120 Y135.250460 Z-0.125000
G01 X126.383120 Y134.176760 Z-0.125000
G01 X126.758120 Y133.051060 Z-0.125000
G01 X126.873120 Y131.987760 Z-0.125000
G01 X126.873120 Y130.757760 Z-0.125000
G00 Z5.000000

(End cutting path id: text14)


(Start cutting path id: text14)
(Change tool to Default tool)

G00 Z5.000000
G00 X137.499120 Y122.064460

G01 Z-0.125000 F100.0(Penetrate)
G01 X132.611120 Y122.064460 Z-0.125000 F400.000000
G01 X131.360120 Y122.262460 Z-0.125000
G01 X130.130120 Y122.908760 Z-0.125000
G01 X129.606120 Y123.432560 Z-0.125000
G01 X129.181120 Y124.086660 Z-0.125000
G01 X128.900120 Y124.897060 Z-0.125000
G01 X128.806120 Y125.869060 Z-0.125000
G01 X128.806120 Y133.332460 Z-0.125000
G01 X131.516120 Y133.332460 Z-0.125000
G01 X131.516120 Y125.869060 Z-0.125000
G01 X131.586120 Y125.400060 Z-0.125000
G01 X131.798120 Y125.056060 Z-0.125000
G01 X132.147120 Y124.844960 Z-0.125000
G01 X132.631120 Y124.774660 Z-0.125000
G01 X137.499120 Y124.774660 Z-0.125000
G01 X137.499120 Y122.064460 Z-0.125000
G00 Z5.000000

(End cutting path id: text14)


(Start cutting path id: text14)
(Change tool to Default tool)

G00 Z5.000000
G00 X141.294120 Y120.980360

G01 Z-0.125000 F100.0(Penetrate)
G01 X141.116120 Y119.729560 Z-0.125000 F400.000000
G01 X140.647120 Y118.749760 Z-0.125000
G01 X139.970120 Y118.030460 Z-0.125000
G01 X139.157120 Y117.540560 Z-0.125000
G01 X138.312120 Y117.269560 Z-0.125000
G01 X137.499120 Y117.175760 Z-0.125000
G01 X132.611120 Y117.175760 Z-0.125000
G01 X132.611120 Y119.885960 Z-0.125000
G01 X137.499120 Y119.885960 Z-0.125000
G01 X137.974120 Y119.956260 Z-0.125000
G01 X138.312120 Y120.167360 Z-0.125000
G01 X138.516120 Y120.511360 Z-0.125000
G01 X138.583120 Y120.980360 Z-0.125000
G01 X138.583120 Y133.332460 Z-0.125000
G01 X141.294120 Y133.332460 Z-0.125000
G01 X141.294120 Y120.980360 Z-0.125000
G00 Z5.000000

(End cutting path id: text14)


(Start cutting path id: text14)
(Change tool to Default tool)

G00 Z5.000000
G00 X154.109120 Y130.622260

G01 Z-0.125000 F100.0(Penetrate)
G01 X149.377120 Y130.622260 Z-0.125000 F400.000000
G01 X149.377120 Y122.064460 Z-0.125000
G01 X146.635120 Y122.064460 Z-0.125000
G01 X146.635120 Y130.622260 Z-0.125000
G01 X143.112120 Y130.622260 Z-0.125000
G01 X143.112120 Y133.332460 Z-0.125000
G01 X146.635120 Y133.332460 Z-0.125000
G01 X146.635120 Y137.012060 Z-0.125000
G01 X149.377120 Y137.012060 Z-0.125000
G01 X149.377120 Y133.332460 Z-0.125000
G01 X154.109120 Y133.332460 Z-0.125000
G01 X154.109120 Y130.622260 Z-0.125000
G00 Z5.000000

(End cutting path id: text14)


(Start cutting path id: text14)
(Change tool to Default tool)

G00 Z5.000000
G00 X158.627120 Y122.064460

G01 Z-0.125000 F100.0(Penetrate)
G01 X155.917120 Y122.064460 Z-0.125000 F400.000000
G01 X155.917120 Y138.096060 Z-0.125000
G01 X158.627120 Y138.096060 Z-0.125000
G01 X158.627120 Y122.064460 Z-0.125000
G00 Z5.000000

(End cutting path id: text14)


(Start cutting path id: text14)
(Change tool to Default tool)

G00 Z5.000000
G00 X168.405120 Y122.064460

G01 Z-0.125000 F100.0(Penetrate)
G01 X165.695120 Y122.064460 Z-0.125000 F400.000000
G01 X165.695120 Y129.538260 Z-0.125000
G01 X165.627120 Y130.004660 Z-0.125000
G01 X165.424120 Y130.340860 Z-0.125000
G01 X165.085120 Y130.551960 Z-0.125000
G01 X164.611120 Y130.622260 Z-0.125000
G01 X159.722120 Y130.622260 Z-0.125000
G01 X159.722120 Y133.332460 Z-0.125000
G01 X164.611120 Y133.332460 Z-0.125000
G01 X165.424120 Y133.238660 Z-0.125000
G01 X166.268120 Y132.967660 Z-0.125000
G01 X167.081120 Y132.477760 Z-0.125000
G01 X167.759120 Y131.758460 Z-0.125000
G01 X168.228120 Y130.789060 Z-0.125000
G01 X168.405120 Y129.538260 Z-0.125000
G01 X168.405120 Y122.064460 Z-0.125000
G00 Z5.000000

(End cutting path id: text14)


(Start cutting path id: text14)
(Change tool to Default tool)

G00 Z5.000000
G00 X180.418120 Y129.517360

G01 Z-0.125000 F100.0(Penetrate)
G01 X180.347120 Y130.007260 Z-0.125000 F400.000000
G01 X180.136120 Y130.351260 Z-0.125000
G01 X179.792120 Y130.554560 Z-0.125000
G01 X179.323120 Y130.622260 Z-0.125000
G01 X174.455120 Y130.622260 Z-0.125000
G01 X173.978120 Y130.551960 Z-0.125000
G01 X173.632120 Y130.340860 Z-0.125000
G01 X173.421120 Y130.004660 Z-0.125000
G01 X173.350120 Y129.538260 Z-0.125000
G01 X173.350120 Y125.869060 Z-0.125000
G01 X173.421120 Y125.400060 Z-0.125000
G01 X173.632120 Y125.056060 Z-0.125000
G01 X173.978120 Y124.844960 Z-0.125000
G01 X174.455120 Y124.774660 Z-0.125000
G01 X179.323120 Y124.774660 Z-0.125000
G01 X179.805120 Y124.844960 Z-0.125000
G01 X180.147120 Y125.056060 Z-0.125000
G01 X180.350120 Y125.400060 Z-0.125000
G01 X180.418120 Y125.869060 Z-0.125000
G01 X180.418120 Y129.517360 Z-0.125000
G00 Z5.000000

(End cutting path id: text14)


(Start cutting path id: text14)
(Change tool to Default tool)

G00 Z5.000000
G00 X183.128120 Y125.869060

G01 Z-0.125000 F100.0(Penetrate)
G01 X182.951120 Y124.607860 Z-0.125000 F400.000000
G01 X182.482120 Y123.628060 Z-0.125000
G01 X181.804120 Y122.908760 Z-0.125000
G01 X180.991120 Y122.429260 Z-0.125000
G01 X180.136120 Y122.147860 Z-0.125000
G01 X179.323120 Y122.064460 Z-0.125000
G01 X174.435120 Y122.064460 Z-0.125000
G01 X173.205120 Y122.262460 Z-0.125000
G01 X171.964120 Y122.908760 Z-0.125000
G01 X171.446120 Y123.432560 Z-0.125000
G01 X171.016120 Y124.086660 Z-0.125000
G01 X170.734120 Y124.897060 Z-0.125000
G01 X170.640120 Y125.869060 Z-0.125000
G01 X170.640120 Y129.538260 Z-0.125000
G01 X170.734120 Y130.499860 Z-0.125000
G01 X171.016120 Y131.299860 Z-0.125000
G01 X171.446120 Y131.959160 Z-0.125000
G01 X171.964120 Y132.477760 Z-0.125000
G01 X173.205120 Y133.134360 Z-0.125000
G01 X174.435120 Y133.332460 Z-0.125000
G01 X179.323120 Y133.332460 Z-0.125000
G01 X180.287120 Y133.238660 Z-0.125000
G01 X181.095120 Y132.957160 Z-0.125000
G01 X181.755120 Y132.532460 Z-0.125000
G01 X182.273120 Y132.008660 Z-0.125000
G01 X182.919120 Y130.778660 Z-0.125000
G01 X183.128120 Y129.538260 Z-0.125000
G01 X183.128120 Y125.869060 Z-0.125000
G00 Z5.000000

(End cutting path id: text14)


(Start cutting path id: text14)
(Change tool to Default tool)

G00 Z5.000000
G00 X197.903120 Y122.064460

G01 Z-0.125000 F100.0(Penetrate)
G01 X195.193120 Y122.064460 Z-0.125000 F400.000000
G01 X195.193120 Y128.318660 Z-0.125000
G01 X195.005120 Y129.267260 Z-0.125000
G01 X194.515120 Y129.996860 Z-0.125000
G01 X193.775120 Y130.455560 Z-0.125000
G01 X192.868120 Y130.622260 Z-0.125000
G01 X188.126120 Y130.622260 Z-0.125000
G01 X188.126120 Y122.064460 Z-0.125000
G01 X185.415120 Y122.064460 Z-0.125000
G01 X185.415120 Y131.987760 Z-0.125000
G01 X185.520120 Y132.508960 Z-0.125000
G01 X185.812120 Y132.936360 Z-0.125000
G01 X186.249120 Y133.228260 Z-0.125000
G01 X186.781120 Y133.332460 Z-0.125000
G01 X192.889120 Y133.332460 Z-0.125000
G01 X193.963120 Y133.217760 Z-0.125000
G01 X195.089120 Y132.842560 Z-0.125000
G01 X196.152120 Y132.196260 Z-0.125000
G01 X197.048120 Y131.247760 Z-0.125000
G01 X197.674120 Y129.965560 Z-0.125000
G01 X197.903120 Y128.318660 Z-0.125000
G01 X197.903120 Y122.064460 Z-0.125000
G00 Z5.000000

(End cutting path id: text14)


(Start cutting path id: text14)
(Change tool to Default tool)

G00 Z5.000000
G00 X45.903924 Y135.646560

G01 Z-0.125000 F100.0(Penetrate)
G01 X43.193824 Y135.646560 Z-0.125000 F400.000000
G01 X43.193824 Y138.096060 Z-0.125000
G01 X45.903924 Y138.096060 Z-0.125000
G01 X45.903924 Y135.646560 Z-0.125000
G00 Z5.000000

(End cutting path id: text14)


(Start cutting path id: text14)
(Change tool to Default tool)

G00 Z5.000000
G00 X9.866624 Y37.959660

G01 Z-0.125000 F100.0(Penetrate)
G01 X9.866624 Y48.542660 Z-0.125000 F400.000000
G01 X105.116120 Y48.542660 Z-0.125000
G01 X200.366120 Y48.542660 Z-0.125000
G01 X200.366120 Y37.959660 Z-0.125000
G01 X200.366120 Y27.376660 Z-0.125000
G01 X105.116120 Y27.376660 Z-0.125000
G01 X9.866624 Y27.376660 Z-0.125000
G01 X9.866624 Y37.959660 Z-0.125000
G00 Z5.000000

(End cutting path id: text14)


(Footer)
M5
G00 X0.0000 Y0.0000
M2
(Using default footer. To add your own footer create file "footer" in the output dir.)
(end)
%